X: 1
T: The Repeal Of The Union
R: reel
M: 4/4
L: 1/8
K: Dmix
|: ADED ~A2AG | E2cE dEcB | ADED ~A2AG | E2cE EDD2 :|
|: Adde fdec | ABcA dBcB | Adde fdcA | GEcE EDD2 |
Adde fdec | ABcd eg~g2 | afge fdcA | GEcE EDD2 ||


Tune 545	Setting 13507

